X: 1
T: Drunken Piper, The
M: 4/4
L: 1/8
R: reel
K: Amix
|:E2 |AAAB d3e | edBd e2a2 | GGGB d3e | dBGB d3e |
AAAB d3e | edBd e2a2 | g2eg efed | c2A2A2 :|
|: e2 |a4 e2a2 | edef g2a2 | GGGB d3e | dBGB d2e2 |
a4 e2a2 | edef g2a2 | g2eg efed | c2A2A2 :|
